svgs/thin/arrow-up-z-a.svg

<svg xmlns="http://www.w3.org/2000/svg" viewBox="0 0 512 512"><!--! Font Awesome Pro 6.3.0 by @fontawesome - https://fontawesome.com License - https://fontawesome.com/license (Commercial License) Copyright 2023 Fonticons, Inc. --><path d="M45.9 141.3l74.1-80.85V471.1C120 476.4 123.6 480 128 480s8.001-3.594 8.001-8.002V60.47l74.1 80.85c1.594 1.719 3.75 2.594 5.906 2.594c1.938 0 3.875-.6875 5.406-2.094c3.25-3.002 3.469-8.064 .5-11.32L133.9 34.48c-3.062-3.312-8.75-3.312-11.81 0L34.09 130.5c-2.969 3.252-2.75 8.314 .5 11.32C37.84 144.8 42.9 144.6 45.9 141.3zM456 208h-127.1l133.3-162.9c1.969-2.375 2.375-5.688 1.031-8.5C461.9 33.78 459.1 32 456 32h-144c-4.406 0-8 3.594-8 8s3.594 8 8 8h127.1l-133.3 162.9c-1.969 2.375-2.375 5.688-1.031 8.5C306.1 222.2 308.9 224 312 224h144c4.406 0 8-3.594 8-8S460.4 208 456 208zM479.2 468.4l-88-176c-2.688-5.438-11.62-5.438-14.31 0l-88 176c-1.969 3.938-.375 8.75 3.594 10.72c3.812 1.906 8.75 .4062 10.72-3.594L328.9 424h110.1l25.78 51.56C466.3 478.4 469.1 480 472 480c1.219 0 2.438-.2813 3.562-.8438C479.5 477.2 481.1 472.4 479.2 468.4zM336.9 408l47.06-94.13L431.1 408H336.9z"/></svg>

<svg xmlns="http://www.w3.org/2000/svg" viewBox="0 0 512 512"><!-- Font Awesome Pro 6.0.0-alpha2 by @fontawesome - https://fontawesome.com License - https://fontawesome.com/license (Commercial License) --><path d="M45.902 141.324L120 60.471V471.998C120 476.406 123.594 480 128 480S136 476.406 136 471.998V60.471L210.098 141.324C211.691 143.043 213.848 143.918 216.004 143.918C217.941 143.918 219.879 143.23 221.41 141.824C224.66 138.822 224.879 133.76 221.91 130.508L133.906 34.484C130.844 31.172 125.156 31.172 122.094 34.484L34.09 130.508C31.121 133.76 31.34 138.822 34.59 141.824C37.84 144.824 42.902 144.605 45.902 141.324ZM455.999 208H328.874L462.186 45.062C464.155 42.687 464.561 39.375 463.218 36.562C461.905 33.781 459.093 32 455.999 32H311.999C307.593 32 303.999 35.594 303.999 40S307.593 48 311.999 48H439.124L305.811 210.938C303.843 213.313 303.436 216.625 304.78 219.438C306.093 222.219 308.905 224 311.999 224H455.999C460.405 224 463.999 220.406 463.999 216S460.405 208 455.999 208ZM479.155 468.438L391.155 292.438C388.468 287 379.53 287 376.843 292.438L288.843 468.438C286.874 472.375 288.468 477.188 292.436 479.156C296.249 481.062 301.186 479.562 303.155 475.562L328.936 424H439.061L464.843 475.562C466.249 478.375 469.061 480 471.999 480C473.218 480 474.436 479.719 475.561 479.156C479.53 477.188 481.124 472.375 479.155 468.438ZM336.936 408L383.999 313.875L431.061 408H336.936Z"/></svg>
